common/icons/svgs/instagram.svg

<svg xmlns="http://www.w3.org/2000/svg" width="24" height="24" viewBox="0 0 24 24">
  <g fill="none" fill-rule="evenodd" transform="translate(-408 -192)">
    <rect width="504" height="450" fill="#FFF"/>
    <g transform="translate(408 192)">
      <rect width="24" height="24"/>
      <g fill="#000" fill-rule="nonzero" transform="translate(2 2)">
        <path d="M19,6.14 C18.9833795,5.36058037 18.8346003,4.58963406 18.56,3.86 C18.0723732,2.59640222 17.0735978,1.59762678 15.81,1.11 C15.0803659,0.835399661 14.3094196,0.686620549 13.53,0.67 C12.53,0.67 12.21,0.61 9.66,0.61 C7.11,0.61 6.79,0.61 5.79,0.67 C5.01058037,0.686620549 4.23963406,0.835399661 3.51,1.11 C2.2501946,1.59996844 1.25537575,2.59841801 0.77,3.86 C0.495399661,4.58963406 0.346620549,5.36058037 0.33,6.14 C0.33,7.14 0.27,7.46 0.27,10.01 C0.27,12.56 0.27,12.88 0.33,13.88 C0.346620549,14.6594196 0.495399661,15.4303659 0.77,16.16 C1.25762678,17.4235978 2.25640222,18.4223732 3.52,18.91 C4.24963406,19.1846003 5.02058037,19.3333795 5.8,19.35 C6.8,19.35 7.12,19.41 9.67,19.41 C12.22,19.41 12.54,19.41 13.54,19.35 C14.3194196,19.3333795 15.0903659,19.1846003 15.82,18.91 C17.0835978,18.4223732 18.0823732,17.4235978 18.57,16.16 C18.8411871,15.4297713 18.9865815,14.6588429 19,13.88 C19,12.88 19.06,12.56 19.06,10.01 C19.06,7.46 19,7.14 19,6.14 Z M17.31,13.8 C17.3078561,14.3968006 17.2029915,14.9887781 17,15.55 C16.6840418,16.3676772 16.0376772,17.0140418 15.22,17.33 C14.662589,17.5354651 14.0740398,17.643704 13.48,17.65 C12.48,17.65 12.19,17.7 9.69,17.7 C7.19,17.7 6.89,17.7 5.9,17.65 C5.30596021,17.643704 4.717411,17.5354651 4.16,17.33 C3.34232284,17.0140418 2.69595821,16.3676772 2.38,15.55 C2.15421117,14.9961691 2.02565939,14.4075373 2,13.81 L2,10 C2,7.48 2,7.2 2.05,6.21 C2.05649343,5.61597928 2.16472623,5.02746341 2.37,4.47 C2.68144504,3.65633619 3.31990717,3.01061881 4.13,2.69 C4.687411,2.48453495 5.27596021,2.37629602 5.87,2.37 C6.87,2.37 7.16,2.32 9.66,2.32 C12.16,2.32 12.46,2.32 13.45,2.37 C14.0440398,2.37629602 14.632589,2.48453495 15.19,2.69 C16.02108,3.0011095 16.6796758,3.652428 17,4.48 C17.2052738,5.03746341 17.3135066,5.62597928 17.32,6.22 C17.32,7.22 17.37,7.51 17.37,10.01 C17.37,12.51 17.35,12.82 17.31,13.81 L17.31,13.8 Z"/>
        <path d="M9.66,5.19 C6.99799595,5.19552856 4.84449599,7.35798898 4.85002073,10.019993 C4.85554547,12.6819971 7.0180028,14.8355002 9.68000687,14.8299792 C12.3420109,14.8244583 14.4955171,12.6620041 14.49,10 C14.4873506,8.72165567 13.976988,7.49672178 13.0711866,6.5946712 C12.1653853,5.69262063 10.9383443,5.18734508 9.66,5.19 L9.66,5.19 Z M9.66,13.19 C7.93922934,13.1896838 6.54142177,11.8003546 6.53063661,10.0796177 C6.51985145,8.35888086 7.90013393,6.95213929 9.62076543,6.93025323 C11.3413969,6.90836717 12.757014,8.2795455 12.79,10 C12.7926577,10.8318589 12.4640644,11.6305581 11.8767873,12.2197115 C11.2895101,12.808865 10.4918631,13.1400042 9.66,13.14 L9.66,13.19 Z"/>
        <circle cx="14.68" cy="5" r="1.13"/>
      </g>
    </g>
  </g>
</svg>

<svg xmlns="http://www.w3.org/2000/svg" viewbox="0 0 24 24"><g class="icon__shape" fill-rule="nonzero" transform="translate(2 2)"><path d="M19 6.14a6.89 6.89 0 0 0-.44-2.28 4.8 4.8 0 0 0-2.75-2.75 6.89 6.89 0 0 0-2.28-.44c-1 0-1.32-.06-3.87-.06s-2.87 0-3.87.06a6.89 6.89 0 0 0-2.28.44A4.8 4.8 0 0 0 .77 3.86a6.89 6.89 0 0 0-.44 2.28c0 1-.06 1.32-.06 3.87s0 2.87.06 3.87c.017.78.165 1.55.44 2.28a4.8 4.8 0 0 0 2.75 2.75c.73.275 1.5.423 2.28.44 1 0 1.32.06 3.87.06s2.87 0 3.87-.06a6.89 6.89 0 0 0 2.28-.44 4.8 4.8 0 0 0 2.75-2.75 6.89 6.89 0 0 0 .43-2.28c0-1 .06-1.32.06-3.87S19 7.14 19 6.14zm-1.69 7.66a5.2 5.2 0 0 1-.31 1.75 3.11 3.11 0 0 1-1.78 1.78 5.19 5.19 0 0 1-1.74.32c-1 0-1.29.05-3.79.05s-2.8 0-3.79-.05a5.19 5.19 0 0 1-1.74-.32 3.11 3.11 0 0 1-1.78-1.78A5.2 5.2 0 0 1 2 13.81V10c0-2.52 0-2.8.05-3.79a5.2 5.2 0 0 1 .32-1.74 3.11 3.11 0 0 1 1.76-1.78 5.19 5.19 0 0 1 1.74-.32c1 0 1.29-.05 3.79-.05s2.8 0 3.79.05a5.19 5.19 0 0 1 1.74.32A3.11 3.11 0 0 1 17 4.48a5.2 5.2 0 0 1 .32 1.74c0 1 .05 1.29.05 3.79s-.02 2.81-.06 3.8v-.01z"/><path d="M9.66 5.19a4.82 4.82 0 1 0 .02 9.64 4.82 4.82 0 0 0-.02-9.64zm0 8A3.13 3.13 0 1 1 12.79 10a3.13 3.13 0 0 1-3.13 3.14v.05z"/><circle cx="14.68" cy="5" r="1.13"/></g></svg>
